src/assets/imgs/logo.svg

<svg xmlns="http://www.w3.org/2000/svg" width="48" height="48" fill="none">
    <path fill="#1E1E1E" d="M0 0h48v48H0z"/>
    <path fill="#032A2E" d="M48 0H0v48h48V0Z"/>
    <path fill="#1AA3FF"
          d="M8.30114 34H5.71591l7.47729-20.3636h2.5454L23.2159 34h-2.5852l-6.0852-17.142h-.1591L8.30114 34Zm.95454-7.9545H19.6761v2.1875H9.25568v-2.1875ZM27.5078 34V13.6364h7.1193c1.4186 0 2.5885.2452 3.5099.7358.9214.4839 1.6075 1.1368 2.0583 1.9588.4507.8153.6761 1.7201.6761 2.7145 0 .875-.1558 1.5975-.4673 2.1676-.3049.57-.7093 1.0208-1.2131 1.3522-.4971.3315-1.0374.5767-1.6207.7358V23.5c.6231.0398 1.2495.2585 1.8792.6562.6298.3978 1.1568.9679 1.581 1.7103.4243.7424.6364 1.6505.6364 2.7244 0 1.0208-.232 1.9389-.696 2.7543-.4641.8153-1.1965 1.4616-2.1975 1.9389-1.0009.4773-2.3035.7159-3.9077.7159h-7.3579Zm2.4659-2.1875h4.892c1.6108 0 2.7543-.3116 3.4304-.9347.6828-.6297 1.0242-1.392 1.0242-2.2869 0-.6894-.1757-1.3257-.527-1.9091-.3513-.5899-.8518-1.0606-1.5014-1.4119-.6496-.358-1.4186-.5369-2.3068-.5369h-5.0114v7.0795Zm0-9.2273h4.5739c.7424 0 1.4119-.1458 2.0085-.4375.6032-.2916 1.0805-.7026 1.4318-1.2329.358-.5303.5369-1.1534.5369-1.8693 0-.8949-.3115-1.6539-.9346-2.277-.6231-.6298-1.6108-.9446-2.9631-.9446h-4.6534v6.7613Z"/>
</svg>

<svg width="48" height="48" viewBox="0 0 48 48" fill="none" xmlns="http://www.w3.org/2000/svg">
<g clip-path="url(#clip0_1_2)">
<path d="M0 0H48V48H0V0Z" fill="#1E1E1E"/>
<path d="M48 0H0V48H48V0Z" fill="#032A2E"/>
<path d="M8.30114 34H5.71591L13.1932 13.6364H15.7386L23.2159 34H20.6307L14.5455 16.858H14.3864L8.30114 34ZM9.25568 26.0455H19.6761V28.233H9.25568V26.0455ZM27.5078 34V13.6364H34.6271C36.0457 13.6364 37.2156 13.8816 38.137 14.3722C39.0584 14.8561 39.7445 15.509 40.1953 16.331C40.646 17.1463 40.8714 18.0511 40.8714 19.0455C40.8714 19.9205 40.7156 20.643 40.4041 21.2131C40.0992 21.7831 39.6948 22.2339 39.191 22.5653C38.6939 22.8968 38.1536 23.142 37.5703 23.3011V23.5C38.1934 23.5398 38.8198 23.7585 39.4495 24.1562C40.0793 24.554 40.6063 25.1241 41.0305 25.8665C41.4548 26.6089 41.6669 27.517 41.6669 28.5909C41.6669 29.6117 41.4349 30.5298 40.9709 31.3452C40.5068 32.1605 39.7744 32.8068 38.7734 33.2841C37.7725 33.7614 36.4699 34 34.8657 34H27.5078ZM29.9737 31.8125H34.8657C36.4765 31.8125 37.62 31.5009 38.2961 30.8778C38.9789 30.2481 39.3203 29.4858 39.3203 28.5909C39.3203 27.9015 39.1446 27.2652 38.7933 26.6818C38.442 26.0919 37.9415 25.6212 37.2919 25.2699C36.6423 24.9119 35.8733 24.733 34.9851 24.733H29.9737V31.8125ZM29.9737 22.5852H34.5476C35.29 22.5852 35.9595 22.4394 36.5561 22.1477C37.1593 21.8561 37.6366 21.4451 37.9879 20.9148C38.3459 20.3845 38.5248 19.7614 38.5248 19.0455C38.5248 18.1506 38.2133 17.3916 37.5902 16.7685C36.9671 16.1387 35.9794 15.8239 34.6271 15.8239H29.9737V22.5852Z" fill="#2EC4B6"/>
</g>
<defs>
<clipPath id="clip0_1_2">
<rect width="48" height="48" fill="white"/>
</clipPath>
</defs>
</svg>
